X:1
T:(1890)
T:Arr. Carrie V. Hayden (fl. 1890)
T:"That Is Love" Schottische
%%score ( 1 2 )
L:1/8
Q:1/4=108
M:4/4
K:A
V:1 treble-8 nm="Guitare classique"
V:2 treble-8 
V:1
 (!-(!E<!-)!F)G/ | A>cf>c e>cB>A | G>Bd>f e2 [Gde]2 | d>eg>e f>e[Bd]>B | A>Bc>f e2 [Ace]2 | %5
 A>cf>c e>cB>A | G>Be>g b>b^a>b |{/b} c'2 b2 [^B^da]2 c>d | %8
 !arpeggio![GBe]>^df>e !arpeggio!!>![EG=d]>(!-(!E!-)!F>)G | A>cf>c e>cB>A | G>Bd>f e2 [Gde]2 | %11
 d>eg>e f>e[Bd]>B | A>Bc>f e2 [Ace]2 | A>cf>c e>cB>A | d>da>a ^d>da>a | e>^eg>f =e>=dF>G | %16
 B2 z2 [EA]2 E2 ||[K:C] A2 B2 [Ac]2 [Ad]2 | [Ace]>ea>e g>fe>d | c>ed>c B>cd>B | c>BA>c B>^GE>E | %21
 A2 B2 [Ac]2 [Ad]2 | [Ace]>ea>e g>fe>d | (3ced (3cBA ^G>E^F>G | A2 E2 A2 E2 | A2 B2 [Ac]2 [Ad]2 | %26
 [Ace]>ea>e g>fe>d | c>ed>c B>cd>B | c>BA>c B>^GE>E | A2 B2 [Ac]2 [Ad]2 | [Ace]>ea>e g>fe>d | %31
 (3ced (3cBA ^G>E^F>G | A2 E2 A>E^F>^G ||[K:A] A>cf>c e>cB>A | G>Bd>f e2 [Gde]2 | %35
 d>eg>e f>e[Bd]>B | A>Bc>f e2 [Ace]2 | A>cf>c e>cB>A | d>da>a ^d>da>a | e>^eg>f =e>=dF>G | %40
 B2 z2 [EA]2 A2 ||[K:D]{/f} a^gba fA=gf | f2 [GBe]2 [GB]2 z2 | [Ace]^dfe [Acg]ecA | %44
{/c} B2 A2 f2 [Ad]2 |{/f} a^gba fA=gf | f2 [EAc]2 [Ace]2 E2 | [Bd^g][Bdg][Bdg][Bdg] [Bdg][Bdg] ab | %48
 [cea]2 [Ec]2 [Fd]2 [=Gce]2 |{/f} a^gba fA=gf | f2 [GBe]2 [GB]2 z2 | [Ace]^dfe [Acg]ecA | %52
{/c} B2 A2 f2 [Ad]2 | [Fa]a [^E^g]g [=E=g]g [Df]f | e2{/^g} b2 e2 dB | A2 E2 A2 [Gca]>c | %56
 d2 (3A,Af !fermata![Ad]3/2 ||[K:A] E<FG/ | A>cf>c e>cB>A | G>Bd>f e2 [Gde]2 | d>eg>e f>e[Bd]>B | %61
 A>Bc>f e2 [Ace]2 | A>cf>c e>cB>A | G>Be>g b>b^a>b |{/b} c'2 b2 [^B^da]2 c>d | %65
 !arpeggio![GBe]>^df>e !arpeggio!!>![EG=d]>(!-(!E!-)!F>)G | A>cf>c e>cB>A | G>Bd>f e2 [Gde]2 | %68
 d>eg>e f>e[Bd]>B | A>Bc>f e2 [Ace]2 | A>cf>c e>cB>A | d>da>a ^d>da>a | e>^eg>f =e>=dF>G | %73
 B2 z2 !fermata![EA]3/2 |] %74
V:2
 z/ z2 | A,2 E,2 A,2 z2 | B,2 z2 E,2 z2 | E,2 z2 E,2 z2 | A,2 E,2 A,2 z2 | A,2 E,2 A,2 z2 | %6
 B,2 z2 z4 | z4 F2 z2 | E2 z2 E,2 z2 | A,2 E,2 A,2 z2 | B,2 z2 E,2 z2 | E,2 z2 E,2 z2 | %12
 A,2 E,2 A,2 z2 | A,2 z2 =G2 z2 | F2 z2 F2 z2 | E,2 z2 E,2 z2 | z2 E,2 A,2 z2 || %17
[K:C] C2 B,2 A,2 F2 | A,2 z2 D2 z2 | A,2 z2 E,2 z2 | A,2 z2 E,2 z2 | C2 B,2 A,2 F2 | A,2 z2 D2 z2 | %23
 E,2 z2 E,2 z2 | A,2 E,2 A,2 z2 | C2 B,2 A,2 F2 | A,2 z2 D2 z2 | A,2 z2 E,2 z2 | A,2 z2 E,2 z2 | %29
 C2 B,2 A,2 F2 | A,2 z2 D2 z2 | E,2 z2 E,2 z2 | A,2 E,2 A,2 z2 ||[K:A] A,2 E,2 A,2 z2 | %34
 B,2 z2 E,2 z2 | E,2 z2 E,2 z2 | A,2 E,2 A,2 z2 | A,2 z2 =G2 z2 | F2 z2 F2 z2 | E,2 z2 E,2 z2 | %40
 z2 E,2 A,2 z2 ||[K:D] D4 D4 | G,4 z2 G,2 | A,4 A,4 | D4 D4 | D4 D4 | E,4 z2 z2 | E,4 E,4 | %48
 A,4 z4 | D4 D4 | G,4 z2 G,2 | A,4 A,4 | D4 D4 | F2 ^E2 =E2 D2 | ^G,4 z4 | A,4 z4 | D2 A,2 D3/2 || %57
[K:A] z/ z2 | A,2 E,2 A,2 z2 | B,2 z2 E,2 z2 | E,2 z2 E,2 z2 | A,2 E,2 A,2 z2 | A,2 E,2 A,2 z2 | %63
 B,2 z2 z4 | z4 F2 z2 | E2 z2 E,2 z2 | A,2 E,2 A,2 z2 | B,2 z2 E,2 z2 | E,2 z2 E,2 z2 | %69
 A,2 E,2 A,2 z2 | A,2 z2 =G2 z2 | F2 z2 F2 z2 | E,2 z2 E,2 z2 | z2 E,2 A,3/2 |] %74

